lib/flags/m/PN.svg

<svg xmlns="http://www.w3.org/2000/svg" fill="none" viewBox="0 0 20 15"><mask id="PN_svg__a" width="20" height="15" x="0" y="0" mask-type="alpha" maskUnits="userSpaceOnUse"><path fill="#fff" d="M0 0H20V15H0z"/></mask><g mask="url(#PN_svg__a)"><path fill="#2E42A5" fill-rule="evenodd" d="M0 0V15H20V0H0Z" clip-rule="evenodd"/><mask id="PN_svg__b" width="20" height="15" x="0" y="0" mask-type="alpha" maskUnits="userSpaceOnUse"><path fill="#fff" fill-rule="evenodd" d="M0 0V15H20V0H0Z" clip-rule="evenodd"/></mask><g mask="url(#PN_svg__b)"><path fill="#5EAA22" fill-rule="evenodd" d="M12.9427 7.03169C12.9427 7.03169 13.0003 7.67452 12.874 8.03877 12.7478 8.40302 12.6836 8.61446 12.6836 8.38163 12.6836 8.1488 12.5949 7.96428 12.5236 7.96428 12.4522 7.96428 12.5086 8.19517 12.4369 8.19517 12.3652 8.19517 12.1182 8.23487 12.1182 8.09958 12.1182 7.96428 12.0857 8.46252 12.246 8.50708 12.4062 8.55164 12.1682 8.6899 12.0619 8.64708 12.0619 8.64708 12.4991 8.79012 12.6705 8.91201 12.6705 8.91201 13.1844 9.55789 13.6651 9.47909 13.6651 9.47909 13.0106 9.25163 13.1259 8.81705 13.2412 8.38246 13.6651 8.3196 13.6651 8.3196 13.6651 8.3196 13.864 8.38657 13.8581 8.562 13.8521 8.73742 14.0035 8.50708 14.0035 8.50708 14.0035 8.50708 14.0279 8.28544 14.001 8.23135 13.9741 8.17726 14.4566 8.07257 14.4871 7.84433 14.4871 7.84433 13.9941 7.86702 13.9602 7.80839 13.9264 7.74975 14.1128 7.65783 14.0545 7.54353 13.9962 7.42923 13.1259 8.19517 13.1259 8.19517 13.1259 8.19517 13.4264 7.67384 13.4264 7.39388 13.4264 7.11393 13.3501 6.92261 13.1259 6.92261 12.9017 6.92261 12.9427 7.03169 12.9427 7.03169zM17.4736 7.18464C17.4731 7.18556 17.4743 7.18637 17.475 7.18562 17.5069 7.15399 17.707 6.96822 17.8746 7.1147 18.0573 7.27435 17.7825 7.42993 17.7825 7.42993 17.7825 7.42993 17.911 7.55534 18.0579 7.55534 18.2047 7.55534 18.2408 7.42993 18.2408 7.42993 18.2408 7.42993 18.252 7.70902 18.731 7.8147 18.731 7.8147 18.902 7.56766 18.731 7.43241 18.731 7.43241 18.933 7.39024 18.9183 7.22561 18.9183 7.22561 18.7523 7.28254 18.6339 7.15171 18.5156 7.02088 18.2848 6.96055 18.1171 6.99072 17.6908 6.83592 17.4991 7.1398 17.4736 7.18464z" clip-rule="evenodd"/><path fill="#96877D" fill-rule="evenodd" d="M14.5688 8.59257C14.5688 8.59257 15.0642 9.53058 14.7546 9.72494C14.445 9.91931 16.2268 9.78105 16.3947 9.72494C16.5626 9.66884 16.3608 9.37309 16.1746 9.29099C15.9884 9.20888 15.223 8.93571 15.0193 8.72969C14.8157 8.52366 14.9401 8.45056 15.1041 8.24718C15.2681 8.0438 15.8752 7.96248 15.8752 7.77238C15.8752 7.58229 16.2603 6.79832 16.5295 6.73917C16.7987 6.68003 16.6533 6.58688 16.5914 6.58688C16.5295 6.58688 16.1574 6.97299 16.0163 6.90333C15.8752 6.83367 15.858 6.83857 16.0163 6.67018C16.1746 6.50179 16.2938 6.30799 16.0845 6.44743C15.8752 6.58688 15.5302 6.80757 15.3643 6.80757C15.1985 6.80757 14.608 6.73229 14.6813 6.90333C14.7546 7.07436 14.7857 7.37125 15.1041 7.57182C15.4225 7.77238 15.2841 7.91916 15.0193 8.11243C14.7546 8.3057 14.5688 8.59257 14.5688 8.59257Z" clip-rule="evenodd"/><path fill="#FFD018" d="M17.8559 7.35205 16.912 9.2578C16.912 9.2578 16.8844 9.79613 17.5593 9.43741 18.2341 9.0787 18.2076 8.82428 18.4021 8.82428 18.5967 8.82428 18.6585 8.71551 18.6585 8.71551L18.5289 8.61292C18.5289 8.61292 18.5139 8.42579 18.596 8.38376 18.596 8.38376 18.4349 8.29445 18.4119 8.36901 18.3889 8.44358 18.2754 8.21304 18.3396 8.21304 18.3396 8.21304 18.1976 8.44449 18.1677 8.53479 18.1677 8.53479 17.9622 8.4507 17.972 8.06106 17.9819 7.67143 17.8559 7.35205 17.8559 7.35205zM13.3629 7.05025C13.3629 7.05025 12.8823 7.16289 12.9341 7.28011 12.9859 7.39734 13.0623 7.27695 12.827 7.41821 12.827 7.41821 12.4136 7.74 12.3235 7.70513 12.2334 7.67026 12.3873 7.78618 12.3873 7.41821 12.3873 7.05025 12.1472 7.34978 12.3873 7.10413 12.6274 6.85849 12.7115 7.05025 12.827 6.9089 12.9424 6.76756 12.8386 6.84272 13.1518 6.84272 13.465 6.84272 13.3629 7.05025 13.3629 7.05025zM14.8295 8.94434C14.8295 8.94434 13.4837 10.009 13.2148 10.0884 12.9458 10.1679 13.768 10.0666 13.9688 9.92603 14.1697 9.78548 14.8295 8.94434 14.8295 8.94434z"/><path fill="#5EAA22" fill-rule="evenodd" d="M17.4977 10.812C17.4977 10.812 17.6269 11.6508 17.2896 11.5683C16.9524 11.4857 16.8124 11.443 16.8124 11.443C16.8124 11.443 16.9362 11.8337 17.1129 11.8337C17.1129 11.8337 17.414 12.4245 17.2982 12.611C17.2982 12.611 17.8169 12.1874 17.733 11.8506C17.6492 11.5138 17.8671 11.906 17.8671 11.906C17.8671 11.906 18.058 11.9988 18.196 11.8952C18.334 11.7915 18.1942 11.8376 18.0562 11.6403C17.9183 11.443 17.9523 10.889 17.5326 10.6018C17.1129 10.3146 17.0152 10.3238 17.0152 10.3238C17.0152 10.3238 16.7061 9.81506 16.8913 9.84871C16.8913 9.84871 18.2185 10.3067 18.2529 10.4241C18.2874 10.5415 18.6394 10.52 18.4634 10.1843C18.2874 9.84871 17.3387 9.64644 17.2258 9.55179C17.1129 9.45714 17.218 9.09815 17.0152 9.01994C16.8124 8.94174 16.2585 8.3868 16.2589 8.11937C16.2592 7.85195 15.9985 7.72606 15.7719 7.72606C15.5453 7.72606 15.1185 7.66016 14.9382 7.66016C14.7579 7.66016 14.5899 7.96376 14.7641 7.96376C14.9382 7.96376 14.7894 8.53218 14.4978 8.6564C14.2062 8.78063 13.9807 8.95917 13.6477 8.95917C13.3147 8.95917 14.1191 9.24823 14.2473 9.13408C14.3756 9.01994 14.3335 8.84985 14.7641 8.6564C15.1946 8.46295 15.6056 8.34841 15.5536 8.50241C15.5015 8.6564 15.6343 8.91398 15.8371 8.82076C16.04 8.72753 16.105 8.49205 16.105 8.6564C16.105 8.82076 16.416 9.6649 16.6537 9.99436C16.8913 10.3238 17.4977 10.812 17.4977 10.812Z" clip-rule="evenodd"/><path fill="#FFD018" d="M14.6665 7.72949C14.6665 7.72949 14.5087 7.98257 14.6665 7.98257 14.8243 7.98257 15.0781 7.98257 14.9234 7.85603 14.7688 7.72949 14.6665 7.72949 14.6665 7.72949zM15.1937 7.72346C15.1937 7.72346 15.1945 7.89172 15.3038 7.89172 15.4132 7.89172 15.5105 8.05998 15.5105 7.89172 15.5105 7.72346 15.6625 7.77926 15.4281 7.72346 15.1937 7.66766 15.1937 7.72346 15.1937 7.72346zM15.8673 7.76196C15.8673 7.76196 15.7618 7.84187 15.8145 7.9844 15.8673 8.12693 15.9865 8.40898 15.8145 8.40898 15.6426 8.40898 15.5011 8.51067 15.6354 8.51067 15.7698 8.51067 16.0087 8.61236 16.0087 8.51067 16.0087 8.40898 16.1059 8.67834 16.1059 8.51067 16.1059 8.34299 16.1059 8.26287 16.1059 8.16454 16.1059 8.0662 16.2032 8.03793 16.1059 7.89995 16.0087 7.76196 15.8673 7.76196 15.8673 7.76196zM16.1108 8.74316C16.1108 8.74316 16.3306 9.43929 16.45 9.52903 16.5695 9.61878 16.6231 10.3748 16.6756 10.457 16.728 10.5392 17.4424 10.954 17.4424 11.1766 17.4424 11.3993 17.6624 11.0056 17.5524 10.7851 17.4424 10.5647 17.0961 10.0953 16.847 9.99292 16.5979 9.89056 16.6295 9.6427 16.5772 9.4685 16.5248 9.29431 16.8871 9.60925 16.5772 9.21413 16.2673 8.819 16.2755 9.03103 16.3628 9.03103 16.45 9.03103 16.5373 8.98434 16.45 8.92294 16.3628 8.86154 16.1108 8.74316 16.1108 8.74316zM13.7815 10.1787C13.7815 10.1787 13.0679 11.4475 12.9405 11.513 12.8132 11.5786 12.7182 11.5919 12.6532 11.513 12.5881 11.4342 12.5814 11.7247 12.6532 11.8043 12.7249 11.8838 12.9405 11.8838 13.0602 11.7425 13.0602 11.7425 13.0791 12.0995 13.2655 12.3686 13.4519 12.6377 13.5295 12.5634 13.5295 12.7155 13.5295 12.8677 13.5736 13.0692 13.6305 13.0692 13.6873 13.0692 13.7314 13.5482 13.6305 13.5482 13.5295 13.5482 13.8644 13.5875 14.0103 13.4677 14.1563 13.3479 14.2187 13.2566 14.1875 13.2566 14.1563 13.2566 13.7815 13.058 13.7815 12.9175 13.7815 12.777 13.5295 12.667 13.5295 12.4584 13.5295 12.2498 13.3986 12.0018 13.3986 11.903 13.3986 11.8043 13.5105 11.9411 13.6305 11.8476 13.7504 11.7541 13.7815 11.513 13.7815 11.513 13.7815 11.513 13.5927 11.6406 13.5295 11.5768 13.4664 11.513 13.2676 11.3871 13.3986 11.1712 13.5295 10.9552 13.7815 10.1787 13.7815 10.1787z"/><path fill="#5EAA22" fill-rule="evenodd" d="M15.0183 6.17725C15.0183 6.17725 14.7628 6.29167 14.848 6.46167C14.9331 6.63168 14.9638 6.70696 15.0183 6.66932C15.0729 6.63168 15.4557 6.56051 15.37 6.36888C15.2842 6.17725 15.1046 6.17725 15.1046 6.17725H15.0183Z" clip-rule="evenodd"/><path fill="#FFD018" d="M15.9048 6.08543C15.9048 6.08543 15.5673 5.93508 15.6798 6.08543C15.7923 6.23578 15.9362 6.31505 16.0398 6.31505C16.1433 6.31505 16.3585 6.28397 16.2509 6.22331C16.1433 6.16265 15.9048 6.08543 15.9048 6.08543Z"/><path fill="#5EAA22" fill-rule="evenodd" d="M12.5727 9.99232C12.5743 9.98352 12.5638 9.97735 12.5574 9.98355C12.4875 10.0505 12.2755 10.2761 12.3652 10.4724C12.472 10.7058 12.5787 10.7869 12.5787 10.7869C12.5787 10.7869 12.6437 11.1442 12.7781 11.2415C12.7781 11.2415 12.9585 11.2322 12.9674 10.954C12.9674 10.954 13.2739 10.8635 13.364 11.0561C13.364 11.0561 13.3046 11.0778 13.3046 11.2415C13.3046 11.4052 13.4432 11.5825 13.4432 11.5825C13.4432 11.5825 13.5067 11.0179 13.7921 10.654C14.0774 10.29 14.159 10.2182 14.159 10.2182V9.80859C14.159 9.80859 13.5687 10.2929 13.4432 10.6955C13.4432 10.6955 13.1459 10.7055 13.0251 10.654C12.9043 10.6024 13.176 10.5178 13.0251 10.3346C12.8742 10.1513 12.9434 10.5926 12.7781 10.4724C12.5186 10.3998 12.5549 10.0885 12.5727 9.99232Z" clip-rule="evenodd"/><path fill="#5EAA22" fill-rule="evenodd" d="M13.8589 9.6377L16.8833 9.6377V11.4978C16.8833 11.4978 16.6368 13.0177 15.3197 13.7665C15.3197 13.7665 14.0439 13.0074 13.8589 11.4978V9.6377Z" clip-rule="evenodd"/><mask id="PN_svg__c" width="4" height="5" x="13" y="9" mask-type="alpha" maskUnits="userSpaceOnUse"><path fill="#fff" fill-rule="evenodd" d="M13.8589 9.6377L16.8833 9.6377V11.4978C16.8833 11.4978 16.6368 13.0177 15.3197 13.7665C15.3197 13.7665 14.0439 13.0074 13.8589 11.4978V9.6377Z" clip-rule="evenodd"/></mask><g mask="url(#PN_svg__c)"><path fill="#58A5FF" fill-rule="evenodd" d="M15.2968 9.53711L13.9754 12.2975L15.7674 10.6593L17.0007 12.7171V9.53711L15.7674 10.5549L15.2968 9.53711Z" clip-rule="evenodd"/><path fill="#FFD018" d="M15.2551 11.5271C15.2551 11.4726 15.2993 11.4285 15.3537 11.4285C15.4082 11.4285 15.4523 11.4726 15.4523 11.5271V13.3008C15.4523 13.3553 15.4082 13.3994 15.3537 13.3994C15.2993 13.3994 15.2551 13.3553 15.2551 13.3008L15.2551 11.5271Z"/><path fill="#FFD018" d="M14.9129 11.9648C14.859 11.9648 14.8154 11.9211 14.8154 11.8673 14.8154 11.8134 14.859 11.7698 14.9129 11.7698H15.8025C15.8563 11.7698 15.9 11.8134 15.9 11.8673 15.9 11.9211 15.8563 11.9648 15.8025 11.9648H14.9129zM15.4979 13.4387 15.4119 13.509C15.2851 13.354 15.1696 13.2795 15.0674 13.2795 14.917 13.2795 14.7947 13.1531 14.6949 12.9136L14.7975 12.8708C14.8819 13.0735 14.9737 13.1683 15.0674 13.1683 15.2094 13.1683 15.3521 13.2604 15.4979 13.4387z"/><path fill="#FFD018" fill-rule="evenodd" d="M14.5953 12.5319C14.5948 12.5314 14.5938 12.5318 14.5938 12.5326V13.0733C14.5938 13.0739 14.5945 13.0743 14.5951 13.0741L14.999 12.9067C14.9996 12.9064 14.9998 12.9056 14.9993 12.9052L14.5953 12.5319Z" clip-rule="evenodd"/><path fill="#FFD018" d="M15.3189 13.4387L15.4049 13.509C15.5317 13.354 15.6473 13.2795 15.7494 13.2795C15.8998 13.2795 16.0221 13.1531 16.1219 12.9136L16.0193 12.8708C15.9349 13.0735 15.8431 13.1683 15.7494 13.1683C15.6074 13.1683 15.4647 13.2604 15.3189 13.4387Z"/><path fill="#FFD018" fill-rule="evenodd" d="M16.2215 12.5319C16.2221 12.5314 16.223 12.5318 16.223 12.5326V13.0733C16.223 13.0739 16.2224 13.0743 16.2218 13.0741L15.8178 12.9067C15.8172 12.9064 15.8171 12.9056 15.8176 12.9052L16.2215 12.5319Z" clip-rule="evenodd"/><path fill="#fff" d="M15.155 10.732H15.549V11.324H15.155z"/></g><path fill="#2E42A5" d="M0 0H11V9H0z"/><mask id="PN_svg__d" width="11" height="9" x="0" y="0" mask-type="alpha" maskUnits="userSpaceOnUse"><path fill="#fff" d="M0 0H11V9H0z"/></mask><g mask="url(#PN_svg__d)"><path fill="#F7FCFF" d="M-1.25269 8.12494L1.22291 9.21069L11.3062 1.18052L12.612 -0.432938L9.96468 -0.795827L5.85197 2.6646L2.54165 4.99613L-1.25269 8.12494Z"/><path fill="#F50100" d="M-0.913757 8.88555L0.347444 9.51562L12.1431 -0.582947H10.3722L-0.913757 8.88555Z"/><path fill="#F7FCFF" d="M12.5026 8.1248L10.3055 9.52051L-0.0562172 1.18038L-1.36204 -0.433076L1.28526 -0.795966L5.39797 2.66447L8.70828 4.99599L12.5026 8.1248Z"/><path fill="#F50100" d="M12.4182 8.6707L11.157 9.30078L6.13425 4.97706L4.64512 4.49398L-1.48769 -0.427604H0.283185L6.41255 4.37716L8.04064 4.95642L12.4182 8.6707Z"/><mask id="PN_svg__e" width="13" height="11" x="-1" y="-1" fill="#000" maskUnits="userSpaceOnUse"><path fill="#fff" d="M-1-1H12V10H-1z"/><path fill-rule="evenodd" d="M6 0H5V4H0V5H5V9H6V5H11V4H6V0Z" clip-rule="evenodd"/></mask><path fill="#F50100" fill-rule="evenodd" d="M6 0H5V4H0V5H5V9H6V5H11V4H6V0Z" clip-rule="evenodd"/><path fill="#F7FCFF" d="M5 0V-0.9375H4.0625V0H5ZM6 0H6.9375V-0.9375H6V0ZM5 4V4.9375H5.9375V4H5ZM0 4V3.0625H-0.9375V4H0ZM0 5H-0.9375V5.9375H0V5ZM5 5H5.9375V4.0625H5V5ZM5 9H4.0625V9.9375H5V9ZM6 9V9.9375H6.9375V9H6ZM6 5V4.0625H5.0625V5H6ZM11 5V5.9375H11.9375V5H11ZM11 4H11.9375V3.0625H11V4ZM6 4H5.0625V4.9375H6V4ZM5 0.9375H6V-0.9375H5V0.9375ZM5.9375 4V0H4.0625V4H5.9375ZM0 4.9375H5V3.0625H0V4.9375ZM0.9375 5V4H-0.9375V5H0.9375ZM5 4.0625H0V5.9375H5V4.0625ZM5.9375 9V5H4.0625V9H5.9375ZM6 8.0625H5V9.9375H6V8.0625ZM5.0625 5V9H6.9375V5H5.0625ZM11 4.0625H6V5.9375H11V4.0625ZM10.0625 4V5H11.9375V4H10.0625ZM6 4.9375H11V3.0625H6V4.9375ZM5.0625 0V4H6.9375V0H5.0625Z" mask="url(#PN_svg__e)"/></g></g></g></svg>

<svg xmlns="http://www.w3.org/2000/svg" fill="none" viewBox="0 0 20 15"><mask id="PN_svg__a" width="20" height="15" x="0" y="0" maskUnits="userSpaceOnUse"><path fill="#fff" d="M0 0h20v15H0z"/></mask><g mask="url(#PN_svg__a)"><path fill="#2E42A5" fill-rule="evenodd" d="M0 0v15h20V0H0z" clip-rule="evenodd"/><mask id="PN_svg__b" width="20" height="15" x="0" y="0" maskUnits="userSpaceOnUse"><path fill="#fff" fill-rule="evenodd" d="M0 0v15h20V0H0z" clip-rule="evenodd"/></mask><g mask="url(#PN_svg__b)"><path fill="#5EAA22" fill-rule="evenodd" d="M12.943 7.032s.057.643-.069 1.007c-.126.364-.19.575-.19.343 0-.233-.09-.418-.16-.418-.072 0-.015.231-.087.231s-.319.04-.319-.095c0-.136-.032.363.128.407.16.045-.078.183-.184.14 0 0 .437.143.609.265 0 0 .513.646.994.567 0 0-.654-.227-.54-.662.116-.435.54-.497.54-.497s.199.067.193.242c-.006.175.146-.055.146-.055s.024-.222-.003-.276c-.027-.054.456-.158.486-.387 0 0-.493.023-.527-.036-.034-.058.153-.15.095-.264-.059-.115-.93.651-.93.651s.301-.521.301-.801-.076-.471-.3-.471c-.224 0-.183.109-.183.109zm4.531.153h.001c.032-.031.232-.217.4-.07.182.16-.093.315-.093.315s.129.125.276.125c.147 0 .183-.125.183-.125s.011.279.49.385c0 0 .17-.247 0-.383 0 0 .202-.042.187-.206 0 0-.166.057-.284-.074-.119-.131-.35-.191-.517-.161-.426-.155-.618.149-.643.194z" clip-rule="evenodd"/><path fill="#96877D" fill-rule="evenodd" d="M14.569 8.593s.495.938.186 1.132c-.31.194 1.472.056 1.64 0 .168-.056-.034-.352-.22-.434-.187-.082-.952-.355-1.156-.561-.203-.206-.079-.28.085-.483.164-.203.771-.285.771-.475s.385-.974.654-1.033c.27-.059.124-.152.062-.152s-.434.386-.575.316c-.14-.07-.158-.064 0-.233.159-.168.278-.362.069-.223-.21.14-.555.36-.72.36-.167 0-.757-.075-.684.096.074.171.105.468.423.669.319.2.18.347-.085.54-.264.194-.45.48-.45.48z" clip-rule="evenodd"/><path fill="#FFD018" d="M17.856 7.352l-.944 1.906s-.028.538.647.18c.675-.36.648-.614.843-.614.195 0 .256-.108.256-.108l-.13-.103s-.014-.187.068-.23c0 0-.161-.088-.184-.014-.023.075-.137-.156-.072-.156 0 0-.142.232-.172.322 0 0-.206-.084-.196-.474a2.01 2.01 0 00-.116-.709zm-4.493-.302s-.48.113-.429.23c.052.117.128-.003-.107.138 0 0-.413.322-.504.287-.09-.035.064.081.064-.287s-.24-.068 0-.314c.24-.245.324-.054.44-.195.115-.141.012-.066.325-.066s.21.207.21.207zm1.467 1.894s-1.346 1.065-1.615 1.144c-.27.08.553-.021.754-.162.2-.14.86-.982.86-.982z"/><path fill="#5EAA22" fill-rule="evenodd" d="M17.498 10.812s.129.839-.208.756a10.141 10.141 0 01-.478-.125s.124.39.3.39c0 0 .302.591.186.778 0 0 .519-.424.435-.76-.084-.337.134.055.134.055s.19.093.329-.01c.138-.104-.002-.058-.14-.256-.138-.197-.104-.751-.523-1.038-.42-.287-.518-.278-.518-.278s-.309-.509-.124-.475c0 0 1.327.458 1.362.575.034.117.386.096.21-.24-.176-.335-1.124-.538-1.237-.632-.113-.095-.008-.454-.21-.532-.204-.078-.757-.633-.757-.9 0-.268-.26-.394-.487-.394-.227 0-.654-.066-.834-.066-.18 0-.348.304-.174.304s.025.568-.266.692c-.292.125-.517.303-.85.303-.333 0 .471.29.6.175.128-.114.086-.284.516-.478.43-.193.842-.308.79-.154-.053.154.08.412.283.319.203-.093.268-.329.268-.165 0 .165.311 1.009.549 1.338.237.33.844.818.844.818z" clip-rule="evenodd"/><path fill="#FFD018" d="M14.666 7.73s-.157.253 0 .253c.158 0 .412 0 .258-.127-.155-.126-.258-.126-.258-.126zm.528-.006s0 .168.11.168.207.168.207 0 .152-.113-.083-.168c-.234-.056-.234 0-.234 0zm.673.038s-.105.08-.052.223c.052.142.171.424 0 .424-.172 0-.314.102-.18.102.135 0 .374.102.374 0s.097.168.097 0v-.346c0-.099.097-.127 0-.265s-.239-.138-.239-.138zm.243.981s.22.696.34.786c.12.09.173.846.226.928.052.082.767.497.767.72 0 .223.22-.171.11-.392-.11-.22-.457-.69-.706-.792-.249-.102-.217-.35-.27-.524-.052-.175.31.14 0-.255s-.302-.183-.214-.183c.087 0 .174-.046.087-.108-.087-.061-.34-.18-.34-.18zm-2.328 1.436s-.714 1.269-.841 1.334c-.128.066-.223.08-.288 0-.065-.079-.072.212 0 .292.072.079.287.079.407-.062 0 0 .02.357.205.626.187.269.264.195.264.347 0 .152.045.353.101.353.057 0 .101.48 0 .48-.1 0 .234.039.38-.081s.209-.211.178-.211c-.032 0-.406-.199-.406-.34 0-.14-.252-.25-.252-.458 0-.209-.131-.457-.131-.556 0-.098.112.038.232-.055.12-.094.15-.335.15-.335s-.188.128-.252.064c-.063-.064-.261-.19-.13-.406.13-.216.383-.992.383-.992z"/><path fill="#5EAA22" fill-rule="evenodd" d="M15.018 6.177s-.255.115-.17.285c.085.17.116.245.17.208.055-.038.438-.11.352-.3-.086-.193-.265-.193-.265-.193h-.087z" clip-rule="evenodd"/><path fill="#FFD018" d="M15.905 6.086s-.338-.15-.225 0c.112.15.256.23.36.23.103 0 .319-.032.21-.093a2.632 2.632 0 00-.345-.137z"/><path fill="#5EAA22" fill-rule="evenodd" d="M12.573 9.992c.001-.008-.01-.015-.016-.008-.07.067-.282.292-.192.489.107.233.214.314.214.314s.065.357.199.455c0 0 .18-.01.19-.288 0 0 .306-.09.396.102 0 0-.06.022-.06.186 0 .163.14.34.14.34s.063-.564.348-.928c.285-.364.367-.436.367-.436v-.41s-.59.485-.716.888c0 0-.297.01-.418-.042-.12-.051.15-.136 0-.32-.15-.182-.082.259-.247.139-.26-.073-.223-.384-.205-.48z" clip-rule="evenodd"/><path fill="#5EAA22" fill-rule="evenodd" d="M13.859 9.638h3.024v1.86s-.246 1.52-1.563 2.269c0 0-1.276-.76-1.461-2.27v-1.86z" clip-rule="evenodd"/><mask id="PN_svg__c" width="4" height="5" x="13" y="9" maskUnits="userSpaceOnUse"><path fill="#fff" fill-rule="evenodd" d="M13.859 9.638h3.024v1.86s-.246 1.52-1.563 2.269c0 0-1.276-.76-1.461-2.27v-1.86z" clip-rule="evenodd"/></mask><g mask="url(#PN_svg__c)"><path fill="#58A5FF" fill-rule="evenodd" d="M15.297 9.537l-1.322 2.76 1.792-1.638 1.234 2.058v-3.18l-1.234 1.018-.47-1.018z" clip-rule="evenodd"/><path fill="#FFD018" d="M15.255 11.527a.099.099 0 11.197 0v1.774a.099.099 0 11-.197 0v-1.774z"/><path fill="#FFD018" d="M14.913 11.965a.097.097 0 110-.195h.89a.098.098 0 010 .195h-.89zm.585 1.474l-.086.07c-.127-.155-.242-.23-.345-.23-.15 0-.272-.126-.372-.365l.103-.043c.084.203.176.297.27.297.142 0 .284.092.43.27z"/><path fill="#FFD018" fill-rule="evenodd" d="M14.595 12.532h-.001v.541c0 .001 0 .002.001.001l.404-.167v-.002l-.404-.373z" clip-rule="evenodd"/><path fill="#FFD018" d="M15.319 13.439l.086.07c.127-.155.242-.23.345-.23.15 0 .272-.126.372-.365l-.103-.043c-.084.203-.176.297-.27.297-.142 0-.284.092-.43.27z"/><path fill="#FFD018" fill-rule="evenodd" d="M16.221 12.532h.002v.541c0 .001 0 .002-.001.001l-.404-.167v-.002l.403-.373z" clip-rule="evenodd"/><path fill="#fff" d="M15.155 10.732h.394v.592h-.394z"/></g><path fill="#2E42A5" d="M0 0h11v9H0z"/><mask id="PN_svg__d" width="11" height="9" x="0" y="0" maskUnits="userSpaceOnUse"><path fill="#fff" d="M0 0h11v9H0z"/></mask><g mask="url(#PN_svg__d)"><path fill="#F7FCFF" d="M-1.253 8.125L1.223 9.21l10.083-8.03 1.306-1.614-2.647-.363-4.113 3.46-3.31 2.332-3.795 3.129z"/><path fill="#F50100" d="M-.914 8.886l1.261.63L12.143-.583h-1.77L-.915 8.886z"/><path fill="#F7FCFF" d="M12.503 8.125L10.306 9.52-.056 1.18-1.362-.434l2.647-.363 4.113 3.46 3.31 2.332 3.795 3.129z"/><path fill="#F50100" d="M12.418 8.67l-1.261.63-5.023-4.323-1.489-.483-6.133-4.921H.283l6.13 4.804 1.628.58 4.377 3.714z"/><mask id="PN_svg__e" width="13" height="11" x="-1" y="-1" fill="#000" maskUnits="userSpaceOnUse"><path fill="#fff" d="M-1-1h13v11H-1z"/><path fill-rule="evenodd" d="M6 0H5v4H0v1h5v4h1V5h5V4H6V0z" clip-rule="evenodd"/></mask><path fill="#F50100" fill-rule="evenodd" d="M6 0H5v4H0v1h5v4h1V5h5V4H6V0z" clip-rule="evenodd"/><path fill="#F7FCFF" d="M5 0v-.938h-.938V0H5zm1 0h.938v-.938H6V0zM5 4v.938h.938V4H5zM0 4v-.938h-.938V4H0zm0 1h-.938v.938H0V5zm5 0h.938v-.938H5V5zm0 4h-.938v.938H5V9zm1 0v.938h.938V9H6zm0-4v-.938h-.938V5H6zm5 0v.938h.938V5H11zm0-1h.938v-.938H11V4zM6 4h-.938v.938H6V4zM5 .937h1V-.938H5V.938zM5.938 4V0H4.063v4h1.875zM0 4.938h5V3.063H0v1.874zM.938 5V4H-.938v1H.938zM5 4.062H0v1.875h5V4.063zM5.938 9V5H4.063v4h1.875zM6 8.062H5v1.876h1V8.062zM5.062 5v4h1.875V5H5.063zM11 4.062H6v1.875h5V4.063zM10.062 4v1h1.876V4h-1.876zM6 4.938h5V3.063H6v1.874zM5.062 0v4h1.875V0H5.063z" mask="url(#PN_svg__e)"/></g></g></g></svg>
